X:406
T: HIER RUHST DU KARL
N: B0479
O: Europa, Mitteleuropa, Deutschland, Thueringen
R: Liebes - Lied, Leid, Klage, Tod
M: 4/4
L: 1/8
K: F
c | cdBcA3A | ABGAF3
c | f3edcBA | A2G2z3
c | cdBcA3A | ABGAF3
c | f3edcBA | A2G2z3
c | ceeggecB | Accff3
f | fedcdefB | A2G2F2z

